src/icons/sun-cloud.svg

<?xml version="1.0" encoding="UTF-8" standalone="no"?><svg viewBox="0 0 32 32" xmlns="http://www.w3.org/2000/svg" xmlns:xlink="http://www.w3.org/1999/xlink" xml:space="preserve" fill-rule="evenodd" clip-rule="evenodd" stroke-linejoin="round" stroke-miterlimit="2" fill="currentColor"><g transform="translate(.864 1.424)"><path d="M23.648 16.96c1.056.736 1.728 1.952 1.728 3.264-.032 2.112-1.824 3.904-4 3.904h-9.44a5.435 5.435 0 0 1-5.44-5.44v-.032c0-1.888.96-3.52 2.4-4.512-.16-.416-.192-.832-.192-1.312 0-2.208 1.792-4 4-4 1.472 0 2.752.768 3.456 1.984a6.3 6.3 0 0 1 1.536-.192c3.264 0 5.952 2.656 5.952 5.952zm-13.152-4.128c0 .256 0 .416.064.576a4.8 4.8 0 0 1 1.376-.192c.288 0 .544.032.8.096a5.8 5.8 0 0 1 1.76-1.76 2.23 2.23 0 0 0-1.792-.928 2.21 2.21 0 0 0-2.208 2.208m10.912 9.472c1.184 0 2.144-.96 2.112-2.176 0-.832-.48-1.6-1.248-1.952-.384-.16-.576-.576-.512-.96.032-.256.064-.48.064-.704a4.14 4.14 0 0 0-4.128-4.128 4.11 4.11 0 0 0-3.264 1.6c.192.096.352.224.512.32a.92.92 0 0 1 .256 1.248.92.92 0 0 1-1.248.256c-.448-.288-1.088-.672-1.728-.768h-.256a3.646 3.646 0 0 0-3.648 3.648c0 .032-.032.096-.032.128.096 1.952 1.664 3.488 3.648 3.488zm-8.704-14.56a.894.894 0 0 1-.896-.896V5.92c0-.512.416-.896.896-.896s.896.416.896.896v.928a.894.894 0 0 1-.896.896M7.84 9.248l-.64-.64a.91.91 0 0 1 0-1.28.91.91 0 0 1 1.28 0l.64.64a.91.91 0 0 1 0 1.28c-.192.16-.416.256-.64.256s-.448-.096-.64-.256m-.224 3.584c0 .48-.416.896-.896.896h-.928a.894.894 0 0 1-.896-.896c0-.48.416-.896.896-.896h.928c.512 0 .896.416.896.896m9.312-3.328c-.224 0-.448-.096-.64-.256a.91.91 0 0 1 0-1.28l.64-.64a.91.91 0 0 1 1.28 0 .91.91 0 0 1 0 1.28l-.64.64c-.192.16-.416.256-.64.256"/></g></svg>

<?xml version="1.0" encoding="UTF-8" standalone="no"?>
<!DOCTYPE svg PUBLIC "-//W3C//DTD SVG 1.1//EN" "http://www.w3.org/Graphics/SVG/1.1/DTD/svg11.dtd">
<svg width="100%" height="100%" viewBox="0 0 32 32" version="1.1" xmlns="http://www.w3.org/2000/svg" xmlns:xlink="http://www.w3.org/1999/xlink" xml:space="preserve" xmlns:serif="http://www.serif.com/" style="fill-rule:evenodd;clip-rule:evenodd;stroke-linejoin:round;stroke-miterlimit:2;">
    <g transform="matrix(1,0,0,1,0.904,1.476)">
        <path d="M8.895,14.142C8.736,13.727 8.704,13.311 8.704,12.832C8.704,10.624 10.496,8.832 12.704,8.832C14.176,8.832 15.456,9.6 16.16,10.816C16.672,10.688 17.184,10.624 17.696,10.624C16.538,10.624 15.433,10.952 14.496,11.552C14.08,10.976 13.408,10.624 12.704,10.624C11.488,10.624 10.496,11.616 10.496,12.832C10.496,13.08 10.496,13.238 10.554,13.393C9.954,13.549 9.395,13.805 8.895,14.142ZM8.289,18.831C8.392,20.776 9.957,22.304 11.936,22.304L21.408,22.304C22.592,22.304 23.552,21.344 23.52,20.128C23.52,19.91 23.487,19.697 23.425,19.494C23.508,19.725 23.552,19.972 23.552,20.224C23.552,21.408 22.592,22.368 21.408,22.368L11.936,22.368C9.952,22.368 8.352,20.8 8.288,18.848C8.288,18.842 8.288,18.836 8.289,18.831ZM21.812,17.701C21.752,17.549 21.733,17.379 21.76,17.216C21.792,16.96 21.824,16.736 21.824,16.512C21.824,16.077 21.756,15.657 21.63,15.262C21.776,15.684 21.856,16.137 21.856,16.608C21.856,16.832 21.824,17.056 21.792,17.312C21.77,17.442 21.778,17.575 21.812,17.701ZM14.503,14.022C14.664,14.112 14.804,14.22 14.944,14.304C14.998,14.342 15.047,14.384 15.091,14.429C15.056,14.396 15.017,14.365 14.976,14.336C14.85,14.241 14.662,14.147 14.503,14.022ZM12.704,7.744C12.192,7.744 11.808,7.328 11.808,6.848L11.808,5.92C11.808,5.408 12.224,5.024 12.704,5.024C13.184,5.024 13.6,5.44 13.6,5.92L13.6,6.848C13.6,7.36 13.184,7.744 12.704,7.744ZM7.84,9.248L7.2,8.608C6.848,8.256 6.848,7.68 7.2,7.328C7.552,6.976 8.128,6.976 8.48,7.328L9.12,7.968C9.472,8.32 9.472,8.896 9.12,9.248C8.928,9.408 8.704,9.504 8.48,9.504C8.256,9.504 8.032,9.408 7.84,9.248ZM7.616,12.832C7.616,13.312 7.2,13.728 6.72,13.728L5.792,13.728C5.28,13.728 4.896,13.312 4.896,12.832C4.896,12.352 5.312,11.936 5.792,11.936L6.72,11.936C7.232,11.936 7.616,12.352 7.616,12.832ZM16.928,9.504C16.704,9.504 16.48,9.408 16.288,9.248C15.936,8.896 15.936,8.32 16.288,7.968L16.928,7.328C17.28,6.976 17.856,6.976 18.208,7.328C18.56,7.68 18.56,8.256 18.208,8.608L17.568,9.248C17.376,9.408 17.152,9.504 16.928,9.504Z"/>
    </g>
    <g transform="matrix(1,0,0,1,0.904,1.476)">
        <path d="M17.696,10.624C20.96,10.624 23.648,13.28 23.648,16.576L23.648,16.96C24.704,17.696 25.376,18.912 25.376,20.224C25.344,22.336 23.552,24.128 21.376,24.128L11.936,24.128C8.928,24.128 6.496,21.696 6.496,18.688L6.496,18.656C6.496,16.768 7.456,15.136 8.896,14.144C8.896,14.143 8.896,14.143 8.895,14.142C9.395,13.805 9.954,13.549 10.554,13.393C10.556,13.398 10.558,13.403 10.56,13.408C10.976,13.28 11.456,13.216 11.936,13.216C12.224,13.216 12.48,13.248 12.736,13.312C13.216,12.576 13.792,12 14.496,11.552C15.433,10.952 16.538,10.624 17.696,10.624ZM15.091,14.429C15.379,14.732 15.423,15.19 15.2,15.552C14.912,15.968 14.368,16.064 13.952,15.808C13.504,15.52 12.864,15.136 12.224,15.04L11.968,15.04C9.952,15.04 8.32,16.672 8.32,18.688C8.32,18.72 8.288,18.784 8.288,18.816C8.288,18.821 8.289,18.826 8.289,18.831L8.288,18.848C8.352,20.8 9.952,22.368 11.936,22.368L21.408,22.368C22.592,22.368 23.552,21.408 23.552,20.224C23.552,19.972 23.508,19.725 23.425,19.494C23.249,18.923 22.839,18.436 22.272,18.176C22.051,18.084 21.894,17.908 21.812,17.701C21.778,17.575 21.77,17.442 21.792,17.312C21.824,17.056 21.856,16.832 21.856,16.608C21.856,16.137 21.776,15.684 21.63,15.262C21.097,13.597 19.533,12.384 17.696,12.384C16.384,12.384 15.2,12.992 14.432,13.984C14.456,13.996 14.48,14.009 14.503,14.022C14.662,14.147 14.85,14.241 14.976,14.336C15.017,14.365 15.056,14.396 15.091,14.429Z"/>
    </g>
</svg>
